other/svg-icons/grid-3.svg

<!-- Downloaded from @radix-ui/icons -->
<!-- License https://github.com/radix-ui/icons/blob/master/LICENSE -->
<!-- https://github.com/radix-ui/icons/blob/master/packages/radix-icons/icons/laptop.svg -->
<svg width="18.83" height="14.38" viewBox="-.15 0 18.83 15" fill="none" xmlns="http://www.w3.org/2000/svg">
  <path d="M5.71875 13.5625L6.97656 13.5625L6.97656 0.828125L5.71875 0.828125ZM11.4453 13.5625L12.7031 13.5625L12.7031 0.828125L11.4453 0.828125ZM2.45312 14.3828L15.9688 14.3828C17.6094 14.3828 18.4219 13.5781 18.4219 11.9688L18.4219 2.42188C18.4219 0.8125 17.6094 0 15.9688 0L2.45312 0C0.820312 0 0 0.8125 0 2.42188L0 11.9688C0 13.5781 0.820312 14.3828 2.45312 14.3828ZM2.46875 13.125C1.6875 13.125 1.25781 12.7109 1.25781 11.8984L1.25781 2.49219C1.25781 1.67969 1.6875 1.25781 2.46875 1.25781L15.9531 1.25781C16.7266 1.25781 17.1641 1.67969 17.1641 2.49219L17.1641 11.8984C17.1641 12.7109 16.7266 13.125 15.9531 13.125Z" fill="currentColor" />
</svg>

<svg width="18.83" height="15" viewBox="-0.15 0 18.83 15" fill="none" xmlns="http://www.w3.org/2000/svg"><path d="M5.719 13.563h1.258V.828H5.719Zm5.726 0h1.258V.828h-1.258Zm-8.992.82H15.97c1.64 0 2.453-.805 2.453-2.414V2.422C18.422.812 17.609 0 15.969 0H2.453C.82 0 0 .813 0 2.422v9.547q.002 2.414 2.453 2.414m.016-1.258c-.781 0-1.211-.414-1.211-1.227V2.492c0-.812.43-1.234 1.21-1.234h13.485c.774 0 1.211.422 1.211 1.234v9.406c0 .813-.437 1.227-1.21 1.227Z" fill="currentColor"/></svg>
